images/button-images/sc2_C.svg

<?xml version='1.0' encoding='utf-8'?>
<svg xmlns="http://www.w3.org/2000/svg" viewBox="0 0 55.2643 50.216" width="55.2643" height="50.216"><g id="glyph"><g id="button"><g transform="scale(0.5) translate(-669.407,-215.867)"><path d="M 726.4018 216.6406 C 709.6856 215.8673 692.9454 223.7318 682.9975 238.6288 C 669.4070 258.9807 673.0958 287.2302 691.4585 303.4179 C 697.0435 308.3413 701.9293 311.0734 709.8862 313.7246 C 717.6138 316.2994 733.1056 315.7658 741.1304 312.6484 C 767.4162 302.4372 779.9357 270.7166 767.8100 245.0527 C 764.2334 237.4826 754.9533 226.9593 748.5405 223.2011 C 741.5930 219.1296 734.0001 216.9921 726.4018 216.6406 Z  M 722.5737 220.5878 C 743.9711 220.0285 764.3286 236.6654 767.8491 259.5742 C 770.7796 278.6437 760.1186 298.3902 742.0815 307.3046 C 735.4227 310.5956 733.7132 311.0039 725.5210 311.2675 C 711.1462 311.7301 699.9830 307.0198 690.5229 296.4980 C 686.5392 292.0671 680.2416 280.8673 681.1968 279.9121 C 681.4170 279.6919 684.9248 280.7804 688.9917 282.3300 C 694.6465 284.4845 696.4587 285.6465 696.6948 287.2695 C 697.5175 292.9253 706.3215 297.4395 712.8667 295.5624 C 717.5507 294.2191 721.8104 289.8323 722.5405 285.5996 C 723.0156 282.8452 724.4844 280.9443 729.1421 277.0566 C 736.6891 270.7571 736.6450 270.7822 741.1069 270.0703 C 752.0122 268.3305 757.8503 254.1438 751.5679 244.6503 C 748.7694 240.4215 741.9963 236.5566 737.3862 236.5566 C 730.2615 236.5566 722.6902 243.1429 721.2534 250.5917 C 720.8859 252.4970 718.1845 257.4087 715.2495 261.5058 C 710.5473 268.0702 709.3850 269.0885 705.4722 270.0820 C 701.2832 271.1456 700.4040 270.9585 689.9350 266.7695 L 678.8393 262.3300 L 679.4975 258.6933 C 682.6876 241.0660 696.0868 226.5219 713.3862 221.9121 C 716.4394 221.0985 719.5169 220.6677 722.5737 220.5878 Z  M 736.9917 241.6855 C 744.3717 241.3997 751.3411 248.7588 748.9663 256.6855 C 748.3526 258.7339 746.4748 261.5669 744.7925 262.9824 C 739.4394 267.4868 730.5937 265.7562 727.3999 259.5800 C 724.3275 253.6388 726.2945 246.5187 731.9272 243.1914 C 733.5642 242.2244 735.2886 241.7514 736.9917 241.6855 Z  M 737.8510 245.6679 C 734.5163 245.6392 731.1851 247.6397 729.8296 251.2050 C 728.5986 254.4425 731.0095 260.2729 734.0913 261.5097 C 737.2401 262.7735 738.6558 262.7489 741.2026 261.3925 C 746.4852 258.5790 747.5573 252.1379 743.4311 248.0117 C 741.8534 246.4339 739.8519 245.6851 737.8510 245.6679 Z  M 709.9038 272.5566 C 714.4419 272.5566 718.8862 277.2509 718.8862 282.0449 C 718.8862 286.7321 717.5384 289.1683 713.9057 291.0468 C 709.6662 293.2391 706.3795 292.9079 703.1929 289.9687 C 701.0100 287.9554 700.8303 287.5323 702.3862 288.0663 C 703.4862 288.4438 706.0224 288.9867 708.0210 289.2714 C 715.1091 290.2809 718.6577 282.2383 713.4311 277.0117 C 712.0811 275.6617 710.3092 274.5566 709.4917 274.5566 C 708.6741 274.5566 707.7261 274.1066 707.3862 273.5566 C 707.0244 272.9712 708.0678 272.5566 709.9038 272.5566 Z " style="fill:#000000" /></g></g></g></svg>

<svg xmlns="http://www.w3.org/2000/svg" width="55.264" height="50.216" viewBox="0 0 55.264 50.216"><g id="glyph"><g id="button"><g transform="scale(0.5) translate(-669.407,-215.867)"><path d="M726.402 216.64c-16.716-.773-33.457 7.092-43.405 21.989-13.59 20.352-9.901 48.601 8.462 64.789 5.585 4.923 10.47 7.655 18.427 10.307 7.728 2.574 23.22 2.04 31.244-1.077 26.286-10.21 38.806-41.931 26.68-67.595-3.577-7.57-12.857-18.094-19.27-21.852a48.1 48.1 0 0 0-22.138-6.56m-3.828 3.948c21.397-.56 41.755 16.077 45.275 38.986 2.93 19.07-7.73 38.816-25.768 47.73-6.658 3.292-8.368 3.7-16.56 3.964-14.375.462-25.538-4.248-34.998-14.77-3.984-4.43-10.281-15.63-9.326-16.586.22-.22 3.728.868 7.795 2.418 5.654 2.155 7.467 3.317 7.703 4.94.822 5.655 9.626 10.17 16.172 8.292 4.684-1.343 8.943-5.73 9.673-9.962.476-2.755 1.944-4.656 6.602-8.543 7.547-6.3 7.503-6.275 11.965-6.987 10.905-1.74 16.743-15.926 10.46-25.42-2.798-4.228-9.57-8.093-14.18-8.093-7.125 0-14.697 6.586-16.134 14.035-.367 1.905-3.069 6.817-6.004 10.914-4.702 6.564-5.864 7.583-9.777 8.576-4.189 1.064-5.068.877-15.537-3.312l-11.096-4.44.658-3.637c3.19-17.627 16.59-32.171 33.89-36.78a39.7 39.7 0 0 1 9.187-1.325m14.418 21.097c7.38-.285 14.35 7.074 11.974 15-.613 2.049-2.491 4.882-4.173 6.297-5.354 4.505-14.2 2.774-17.393-3.402-3.072-5.941-1.106-13.061 4.527-16.389a10.7 10.7 0 0 1 5.065-1.506m.859 3.983a8.52 8.52 0 0 0-8.021 5.537c-1.231 3.237 1.18 9.068 4.261 10.305 3.15 1.264 4.565 1.239 7.112-.118 5.282-2.813 6.354-9.254 2.228-13.38a7.9 7.9 0 0 0-5.58-2.344m-27.947 26.889c4.538 0 8.982 4.694 8.982 9.488 0 4.687-1.348 7.123-4.98 9.002-4.24 2.192-7.526 1.86-10.713-1.078-2.183-2.014-2.363-2.437-.807-1.903 1.1.378 3.636.92 5.635 1.205 7.088 1.01 10.637-7.033 5.41-12.26-1.35-1.35-3.122-2.454-3.94-2.454-.817 0-1.765-.45-2.105-1-.362-.586.682-1 2.518-1" style="fill:#000"/></g></g></g></svg>
